static/logos/tor-glyph-color.svg

<svg width="32" height="32" viewBox="0 0 32 32" fill="none" xmlns="http://www.w3.org/2000/svg">
<path d="M2 16C2 8.26801 8.26801 2 16 2C23.732 2 30 8.26801 30 16C30 23.732 23.732 30 16 30C8.26801 30 2 23.732 2 16Z" fill="#59316B"/>
<path d="M17.0341 5.64229L16.4629 7.96739C17.272 6.32521 18.5572 5.0895 20.0328 4C18.9539 5.28452 17.9702 6.56916 17.3673 7.85369C18.3828 6.39022 19.7473 5.57729 21.2863 5.04069C19.2395 6.91062 17.6148 8.91715 16.3772 10.9334L15.3935 10.4944C15.5679 8.88465 16.1614 7.23589 17.0341 5.64229V5.64229Z" fill="#ABCD03"/>
<path d="M14.4072 10.067L16.2795 10.863C16.2795 11.3509 16.2408 12.839 16.5385 13.278C19.6523 17.3878 19.1284 25.6259 15.9077 25.8372C11.0031 25.8372 9.13263 22.4228 9.13263 19.2845C9.13263 16.4227 12.4804 14.5203 14.4796 12.8293C14.9873 12.374 14.8992 11.3678 14.4072 10.067V10.067Z" fill="#FFFCDB"/>
<path d="M16.28 10.8343L16.9548 11.187C16.8913 11.6422 16.9865 12.6505 17.4306 12.9105C19.3982 14.1625 21.2544 15.5284 21.9844 16.8942C24.5865 21.7073 20.1597 26.1625 16.3359 25.7397C18.4144 24.1624 19.0173 20.9267 18.2399 17.3982C17.9226 16.0161 17.4306 14.764 16.5579 13.3494C16.1798 12.655 16.3118 11.7938 16.28 10.8343Z" fill="white"/>
<path d="M15.9552 10.7155L17.3514 10.9106C16.9389 12.309 18.1607 13.2845 18.5573 13.5123C19.4458 14.0164 20.3026 14.5367 20.9849 15.1708C22.2702 16.374 23 18.0651 23 19.8537C23 21.626 22.2066 23.3333 20.8739 24.4715C19.6204 25.5447 17.891 26 16.2091 26C15.1619 26 14.2258 25.9513 13.2104 25.6097C10.894 24.813 9.16445 22.7805 9.02167 20.3414C8.89469 18.4389 9.30723 16.9918 10.7512 15.4796C11.4968 14.6829 13.0042 13.7723 14.0356 13.0406C14.5434 12.6828 15.0828 11.6746 14.0514 9.77231L14.2577 9.60968L15.7862 10.6588L14.4958 10.1138C14.6068 10.2764 14.9083 11.0081 14.9719 11.2195C15.1147 11.8211 15.0512 12.4066 14.9242 12.6666C14.2738 13.87 13.1631 14.1951 12.354 14.878C10.9259 16.0812 9.37101 17.0406 9.54551 20.3414C9.62486 21.9674 10.8625 23.9511 12.7187 24.878C13.766 25.3984 14.9719 25.6097 16.1936 25.6747C17.2883 25.7235 19.3827 25.0568 20.5251 24.0812C21.7468 23.0407 22.4291 21.4634 22.4291 19.8537C22.4291 18.2276 21.7944 16.6829 20.6044 15.5934C19.9221 14.9593 18.7957 14.1951 18.0976 13.7885C17.3995 13.3821 16.5268 12.2439 16.8123 11.1545L15.9552 10.7155Z" fill="black"/>
<path d="M15.5268 13.122C15.3841 13.8701 15.2254 15.2196 14.5907 15.7237C14.3209 15.9187 14.0512 16.114 13.7656 16.309C12.6232 17.1058 11.4808 17.8536 10.9573 19.7724C10.8462 20.179 10.9415 20.6179 11.0367 21.0244C11.3223 22.1951 12.1315 23.4634 12.7661 24.2115C12.7661 24.244 12.8931 24.3253 12.8931 24.3578C13.4167 24.992 13.5754 25.1709 15.5587 25.626L15.511 25.8538C14.321 25.5286 13.3374 25.236 12.7185 24.5041C12.7185 24.4879 12.6074 24.374 12.6074 24.374C11.9411 23.5934 11.1318 22.2927 10.8304 21.0732C10.7193 20.5853 10.6242 20.2115 10.7511 19.7073C11.2905 17.7236 12.4647 16.9431 13.6547 16.1138C13.9244 15.935 14.2417 15.7723 14.4955 15.5609C14.9873 15.1871 15.257 14.0488 15.5268 13.122V13.122Z" fill="black"/>
<path d="M16.0342 16.2114C16.0501 17.0569 15.9696 17.4811 16.1758 18.0828C16.3027 18.4405 16.7313 18.9283 16.8583 19.3999C17.0328 20.0341 17.2229 20.7332 17.2069 21.156C17.2069 21.6439 17.1771 22.5541 16.9709 23.5297C16.8136 24.3359 16.4512 25.0277 15.8418 25.4198C15.2175 25.2881 14.4846 25.0632 14.0519 24.6831C13.2111 23.9352 12.4663 22.6845 12.371 21.595C12.2918 20.7008 13.0998 19.3819 14.2262 18.7153C15.1782 18.1462 15.3996 17.4976 15.6058 16.4569C15.3202 17.3675 15.0521 18.1308 14.1318 18.6186C12.799 19.334 12.1152 20.535 12.1786 21.6732C12.2738 23.1365 12.8456 24.1281 13.9721 24.925C14.4481 25.2664 15.3373 25.6273 15.8926 25.7249V25.6505C16.3137 25.5696 16.859 24.8608 17.1306 23.9018C17.3687 23.0401 17.4625 21.9371 17.4465 21.2379C17.4306 20.8314 17.2556 19.9511 16.9382 19.1543C16.7637 18.7154 16.4956 18.2764 16.321 17.9675C16.1308 17.6583 16.1295 16.9918 16.0342 16.2114Z" fill="black"/>
<path d="M15.9398 19.3998C15.9556 19.9689 16.1787 20.6981 16.2738 21.4462C16.3533 21.9991 16.3188 22.5544 16.3029 23.0423C16.2872 23.607 16.1036 24.6189 15.8527 25.1109C15.6161 24.9997 15.5236 24.8729 15.3698 24.6682C15.1795 24.3917 15.0503 24.1153 14.9233 23.7901C14.8281 23.5462 14.7169 23.267 14.6692 22.9418C14.6057 22.4541 14.6235 21.691 15.1629 20.9104C15.5754 20.2925 15.67 20.2455 15.8128 19.5301C15.6222 20.1642 15.4802 20.2288 15.0358 20.7653C14.5441 21.3507 14.4622 22.213 14.4622 22.9121C14.4622 23.2048 14.5761 23.5297 14.6873 23.8385C14.8142 24.1638 14.9231 24.4876 15.0976 24.7314C15.3599 25.1268 15.6956 25.3516 15.86 25.3937C15.861 25.3939 15.8625 25.3935 15.8636 25.3937C15.8671 25.3945 15.8711 25.3967 15.8745 25.3974V25.3788C16.1823 25.0271 16.3676 24.6776 16.4299 24.3259C16.5093 23.9031 16.5275 23.4794 16.5752 22.9753C16.6227 22.5525 16.5882 21.9831 16.4771 21.3978C16.3186 20.6661 16.0509 19.92 15.9398 19.3998L15.9398 19.3998Z" fill="black"/>
<path d="M15.9869 12.4391C16.0028 13.2846 16.0663 14.862 16.2884 15.4798C16.3518 15.6911 16.9389 16.618 17.3513 17.7399C17.637 18.5204 17.7004 19.2358 17.748 19.4472C17.9384 20.374 17.7004 21.935 17.383 23.4147C17.2244 24.2114 16.6849 25.2033 16.0661 25.5936L15.9393 25.8212C16.2884 25.8049 17.1451 24.9432 17.4465 23.87C17.9543 22.0488 18.1606 21.2033 17.9226 19.187C17.8909 18.9918 17.8116 18.3253 17.5101 17.6097C17.0658 16.5202 16.4312 15.4797 16.3519 15.2682C16.209 14.9269 16.0186 13.4472 15.9869 12.4391V12.4391Z" fill="black"/>
<path d="M16.2846 11.2827C16.2375 12.1516 16.2249 12.4716 16.3835 13.1057C16.558 13.8049 17.4466 14.813 17.8115 15.9675C18.5097 18.1789 18.3352 21.0732 17.8273 23.3333C17.6371 24.1299 16.7325 25.2846 15.8282 25.6584L16.4946 25.821C16.8595 25.8047 17.7955 24.9105 18.1605 23.8861C18.7475 22.2763 18.8586 20.3577 18.6206 18.3414C18.6047 18.1463 18.2873 16.4065 17.9859 15.6748C17.5575 14.5854 16.7958 13.6097 16.7166 13.3985C16.5739 13.0407 16.2604 12.2979 16.2846 11.2827Z" fill="black"/>
<rect x="15.7802" y="10.6712" width="0.492005" height="15.0036" fill="black"/>
</svg>

<svg xmlns="http://www.w3.org/2000/svg" width="64" height="64" fill="none" viewBox="0 0 32 32"><path fill="#59316B" d="M2 16C2 8.268 8.268 2 16 2s14 6.268 14 14-6.268 14-14 14S2 23.732 2 16"/><path fill="#ABCD03" d="m17.034 5.642-.571 2.325c.809-1.642 2.094-2.877 3.57-3.967-1.08 1.285-2.063 2.57-2.666 3.854 1.016-1.464 2.38-2.277 3.92-2.813-2.047 1.87-3.672 3.876-4.91 5.892l-.983-.439c.174-1.61.767-3.258 1.64-4.852"/><path fill="#FFFCDB" d="m14.407 10.067 1.872.796c0 .488-.038 1.976.26 2.415 3.113 4.11 2.59 12.348-.631 12.56-4.905 0-6.775-3.415-6.775-6.553 0-2.862 3.347-4.765 5.347-6.456.507-.455.42-1.461-.073-2.762"/><path fill="#fff" d="m16.28 10.834.675.353c-.064.455.032 1.463.476 1.724 1.967 1.252 3.823 2.617 4.553 3.983 2.602 4.813-1.824 9.269-5.648 8.846 2.078-1.578 2.681-4.813 1.904-8.342-.317-1.382-.81-2.634-1.682-4.049-.378-.694-.246-1.555-.278-2.515"/><path fill="#000" d="m15.955 10.716 1.396.195c-.412 1.398.81 2.374 1.206 2.601.889.504 1.746 1.025 2.428 1.659A6.4 6.4 0 0 1 23 19.854c0 1.772-.793 3.48-2.126 4.618C19.62 25.545 17.89 26 16.209 26c-1.047 0-1.983-.049-2.999-.39-2.316-.797-4.046-2.83-4.188-5.269-.127-1.902.285-3.35 1.73-4.861.745-.797 2.252-1.708 3.284-2.44.507-.357 1.047-1.365.015-3.268l.207-.162 1.528 1.049-1.29-.545c.11.162.412.894.476 1.105.143.602.08 1.188-.048 1.448-.65 1.203-1.76 1.528-2.57 2.211-1.428 1.203-2.983 2.163-2.808 5.463.079 1.626 1.317 3.61 3.173 4.537 1.047.52 2.253.732 3.475.797 1.094.049 3.189-.618 4.331-1.594 1.222-1.04 1.904-2.618 1.904-4.227 0-1.626-.635-3.171-1.825-4.26-.682-.635-1.808-1.399-2.506-1.805-.698-.407-1.571-1.545-1.286-2.634z"/><path fill="#000" d="M15.527 13.122c-.143.748-.302 2.098-.936 2.602-.27.195-.54.39-.825.585-1.143.797-2.285 1.545-2.809 3.463-.11.407-.016.846.08 1.252.285 1.171 1.095 2.44 1.73 3.188 0 .032.126.113.126.146.524.634.682.813 2.666 1.268l-.048.228c-1.19-.325-2.174-.618-2.792-1.35 0-.016-.112-.13-.112-.13-.666-.78-1.475-2.081-1.777-3.3-.11-.489-.206-.863-.079-1.367.54-1.983 1.714-2.764 2.904-3.593.27-.179.587-.342.84-.553.492-.374.762-1.512 1.032-2.439"/><path fill="#000" d="M16.034 16.211c.016.846-.064 1.27.142 1.872.127.358.555.845.682 1.317.175.634.365 1.333.349 1.756 0 .488-.03 1.398-.236 2.374-.157.806-.52 1.498-1.13 1.89-.623-.132-1.356-.357-1.79-.737-.84-.748-1.585-1.998-1.68-3.088-.08-.894.729-2.213 1.855-2.88.952-.569 1.174-1.217 1.38-2.258-.286.91-.554 1.674-1.474 2.162-1.333.715-2.017 1.916-1.953 3.054.095 1.464.667 2.455 1.793 3.252.476.341 1.365.702 1.92.8v-.075c.422-.08.967-.79 1.239-1.748.238-.862.331-1.965.316-2.664-.016-.407-.191-1.287-.509-2.084-.174-.439-.442-.878-.617-1.186-.19-.31-.192-.976-.287-1.757"/><path fill="#000" d="M15.94 19.4c.016.569.239 1.298.334 2.046.08.553.045 1.108.029 1.596-.016.565-.2 1.577-.45 2.069-.237-.111-.33-.238-.483-.443a4.1 4.1 0 0 1-.447-.878c-.095-.244-.206-.523-.254-.848a2.86 2.86 0 0 1 .494-2.032c.412-.617.507-.665.65-1.38-.19.634-.333.699-.777 1.235-.492.586-.574 1.448-.574 2.147 0 .293.114.618.225.927.127.325.236.649.41.892.263.396.599.62.763.663h.004l.01.003v-.018q.463-.526.556-1.053c.08-.423.098-.847.145-1.35.048-.424.013-.993-.098-1.578-.158-.732-.426-1.478-.537-1.998"/><path fill="#000" d="M15.987 12.44c.016.845.08 2.422.301 3.04.064.211.65 1.138 1.063 2.26.286.78.35 1.496.397 1.707.19.927-.048 2.488-.365 3.968-.159.796-.698 1.788-1.317 2.179l-.127.227c.35-.016 1.206-.878 1.508-1.951.507-1.821.714-2.667.476-4.683-.032-.195-.111-.862-.413-1.577-.444-1.09-1.079-2.13-1.158-2.342-.143-.341-.333-1.82-.365-2.829"/><path fill="#000" d="M16.285 11.283c-.047.869-.06 1.189.099 1.823.174.699 1.063 1.707 1.427 2.861.699 2.212.524 5.106.016 7.366-.19.797-1.094 1.952-1.999 2.325l.667.163c.364-.016 1.3-.91 1.665-1.935.587-1.61.699-3.528.46-5.545-.015-.195-.333-1.934-.634-2.666-.428-1.09-1.19-2.065-1.27-2.277-.142-.357-.456-1.1-.431-2.115"/><path fill="#000" d="M15.78 10.671h.492v15.004h-.492z"/></svg>
